docs/img/video-block/mute.svg

<svg width="20" height="20" viewBox="0 0 20 20" fill="none" xmlns="http://www.w3.org/2000/svg">
<path fill-rule="evenodd" clip-rule="evenodd" d="M12.0003 15.5827C12.5837 15.9994 13.3337 15.666 13.3337 14.916V11.166L10.2503 14.2493L12.0003 15.5827Z" fill="white"/>
<path fill-rule="evenodd" clip-rule="evenodd" d="M17.2503 4.41602C16.917 4.08268 16.417 4.08268 16.0837 4.41602L13.3337 7.16602V5.08268C13.3337 4.41602 12.5003 3.99935 12.0003 4.41602L9.66699 6.33268C9.33366 6.49935 9.00033 6.66602 8.58366 6.66602H6.66699C5.75033 6.66602 5.00033 7.41602 5.00033 8.33268V11.666C5.00033 12.5827 5.75033 13.3327 6.66699 13.3327H7.16699L4.41699 16.0827C4.08366 16.416 4.08366 16.916 4.41699 17.2494C4.75033 17.5827 5.25033 17.5827 5.58366 17.2494L17.2503 5.58268C17.5837 5.24935 17.5837 4.74935 17.2503 4.41602Z" fill="white"/>
</svg>

<svg width="20" height="20" fill="none" xmlns="http://www.w3.org/2000/svg"><path fill-rule="evenodd" clip-rule="evenodd" d="M12 15.583c.584.416 1.334.083 1.334-.667v-3.75l-3.084 3.083L12 15.583zm5.25-11.167a.805.805 0 00-1.166 0l-2.75 2.75V5.083c0-.667-.834-1.084-1.334-.667L9.667 6.333c-.333.166-.667.333-1.083.333H6.667C5.75 6.666 5 7.416 5 8.333v3.333c0 .917.75 1.667 1.667 1.667h.5l-2.75 2.75a.806.806 0 000 1.166.806.806 0 001.167 0L17.25 5.583a.805.805 0 000-1.167z" fill="#fff"/></svg>
